X: 11950
T: En Pasando La Perruca
R: reel
M: 4/4
K: Dminor
D>F|:A2-A>AA2B>A|G2-GE FG A>G|F2-FD GF ED|1 D^c2-cD D>F:|2 D^c3D^C DE||
F>ED2F2GF/G/|A3D D^C DE|F2G>F E>D ^C>E|D>E FG EF D2-|DE FG EF D2|
A3A B3B|BA GA AG FE|F>E F>E F>E F>E|D6 D>F:|

